X: 3376
M: 2/4
L: 1/16
K: A
(cd) !segno!|\
e2e2e2e2 | e2e2e2e2 | f2a2g2f2 | e6 e2 |\
e2d2d2d2 | d2c2c2e2 | f2d2B2G2 | AEFG ABcd |\
eeee e2e2 | eeee e2e2 | ffaa ggff | eeee e2e2 |
eddd d2d2 | dccc c2e2 | f2d2B2G2 | A6 |:\
E2 |\
[2 AEFG ABcd !segno!|]


